static/logos/asana-wordmark-color.svg

<svg width="100" height="20" viewBox="0 0 100 20" fill="none" xmlns="http://www.w3.org/2000/svg">
<g clip-path="url(#clip0_1_3491)">
<path fill-rule="evenodd" clip-rule="evenodd" d="M96.6062 14.9129C96.666 15.5961 97.2124 16.4658 98.1597 16.4658H98.7133C98.9285 16.4658 99.1044 16.2898 99.1044 16.0749V3.89185H99.1017C99.091 3.6866 98.9213 3.52221 98.7133 3.52221H96.9972C96.7892 3.52221 96.6196 3.6866 96.6088 3.89185H96.6062V4.88178C95.5544 3.58543 93.8963 3.04736 92.2338 3.04736C88.4544 3.04736 85.3906 6.11358 85.3906 9.89612C85.3906 13.679 88.4544 16.7452 92.2338 16.7452V16.7456C93.8963 16.7456 95.7088 16.1 96.6062 14.9114V14.9129ZM92.2401 14.3483C89.8365 14.3483 87.8881 12.3551 87.8881 9.89612C87.8881 7.43761 89.8365 5.44443 92.2401 5.44443C94.6445 5.44443 96.5928 7.43761 96.5928 9.89612C96.5928 12.3551 94.6445 14.3483 92.2401 14.3483Z" fill="#0D0E10"/>
<path fill-rule="evenodd" clip-rule="evenodd" d="M83.2253 15.332L83.2245 9.02782H83.2247C83.2247 5.47414 80.9845 3.07678 77.4123 3.07678C75.707 3.07678 74.3091 4.06361 73.8154 4.91132C73.7087 4.24848 73.3571 3.55174 72.2667 3.55174H71.7108C71.4958 3.55174 71.3203 3.72787 71.3203 3.94279V14.9435C71.3203 14.9439 71.3203 14.9447 71.3203 14.9452V16.1269H71.3225C71.3337 16.3318 71.5034 16.4964 71.711 16.4964H73.4275C73.4538 16.4964 73.4796 16.4933 73.5045 16.4884C73.5158 16.4862 73.5264 16.4817 73.5375 16.4786C73.5502 16.4747 73.5635 16.4717 73.5757 16.4667C73.5909 16.4603 73.6048 16.4518 73.619 16.4439C73.6259 16.4396 73.6333 16.4367 73.64 16.4322C73.6571 16.4211 73.6728 16.4078 73.688 16.3942C73.6905 16.3917 73.6934 16.39 73.6959 16.3877C73.713 16.3712 73.7286 16.353 73.7424 16.3341C73.7425 16.3338 73.7425 16.3338 73.7425 16.3338C73.7855 16.2748 73.8116 16.2036 73.8158 16.1269H73.8181V8.93005C73.8181 7.02149 75.3642 5.47413 77.2715 5.47413C79.1786 5.47413 80.7249 7.02149 80.7249 8.93005L80.7264 14.9457L80.7268 14.9435C80.7268 14.9489 80.7276 14.9543 80.7276 14.96V16.1269H80.73C80.7413 16.3318 80.9108 16.4964 81.1183 16.4964H82.835C82.8614 16.4964 82.887 16.4933 82.9118 16.4884C82.922 16.4866 82.9314 16.4825 82.9414 16.4797C82.9554 16.4756 82.9699 16.4721 82.9833 16.4667C82.9974 16.4609 83.0101 16.4527 83.0234 16.4452C83.0316 16.4407 83.04 16.4374 83.0478 16.4322C83.0636 16.4217 83.0782 16.4092 83.0925 16.3967C83.096 16.3934 83.1001 16.3909 83.1035 16.3875C83.1199 16.3717 83.1343 16.3548 83.1475 16.337C83.1485 16.3357 83.1496 16.3346 83.1506 16.3333C83.1929 16.2748 83.2188 16.2042 83.2233 16.1279C83.2233 16.1274 83.2234 16.1269 83.2234 16.1269H83.2258V15.3322L83.2253 15.332Z" fill="#0D0E10"/>
<path fill-rule="evenodd" clip-rule="evenodd" d="M65.3487 14.9129C65.4087 15.5961 65.9552 16.4658 66.902 16.4658H67.4559C67.6707 16.4658 67.8465 16.2898 67.8465 16.0749V3.89185H67.8442C67.8331 3.6866 67.6633 3.52221 67.4559 3.52221H65.7394C65.5318 3.52221 65.3623 3.6866 65.3507 3.89185H65.3487V4.88178C64.2969 3.58543 62.6388 3.04736 60.976 3.04736C57.1966 3.04736 54.1328 6.11357 54.1328 9.89621C54.1328 13.679 57.1966 16.7453 60.976 16.7453V16.7456C62.6388 16.7456 64.4509 16.1001 65.3485 14.9114L65.3487 14.9129ZM60.9827 14.3483C58.5791 14.3483 56.6304 12.3552 56.6304 9.89621C56.6304 7.43761 58.5791 5.44443 60.9827 5.44443C63.3866 5.44443 65.335 7.43761 65.335 9.89621C65.335 12.3552 63.3866 14.3483 60.9827 14.3483Z" fill="#0D0E10"/>
<path fill-rule="evenodd" clip-rule="evenodd" d="M43.9758 13.168C45.1217 13.9624 46.3725 14.3483 47.5745 14.3483C48.7196 14.3483 49.9034 13.7542 49.9034 12.7201C49.9034 11.3396 47.3239 11.1248 45.7032 10.5735C44.0821 10.0223 42.6859 8.8827 42.6859 7.03725C42.6859 4.21341 45.2001 3.04712 47.5467 3.04712C49.0335 3.04712 50.5675 3.53778 51.5621 4.24065C51.9046 4.50038 51.696 4.79857 51.696 4.79857L50.7467 6.15555C50.64 6.30839 50.4533 6.44044 50.1856 6.27501C49.9177 6.1097 48.9783 5.44425 47.5467 5.44425C46.115 5.44425 45.2525 6.10595 45.2525 6.9261C45.2525 7.9096 46.3734 8.21892 47.6863 8.55414C49.9742 9.17128 52.47 9.91316 52.47 12.7201C52.47 15.2082 50.1446 16.7457 47.5745 16.7457C45.6269 16.7457 43.9687 16.1901 42.578 15.1688C42.2883 14.8786 42.4906 14.6091 42.4906 14.6091L43.4353 13.259C43.6275 13.0066 43.8699 13.0947 43.9758 13.168Z" fill="#0D0E10"/>
<path fill-rule="evenodd" clip-rule="evenodd" d="M37.38 14.9129C37.44 15.5961 37.9866 16.4658 38.9333 16.4658H39.4873C39.702 16.4658 39.878 16.2898 39.878 16.0749V3.89185H39.8756C39.8643 3.6866 39.6948 3.52221 39.4873 3.52221H37.7708C37.5632 3.52221 37.3936 3.6866 37.3821 3.89185H37.38V4.88178C36.3283 3.58543 34.6702 3.04736 33.0075 3.04736C29.228 3.04736 26.1641 6.11357 26.1641 9.89621C26.1641 13.679 29.228 16.7453 33.0075 16.7453V16.7456C34.6702 16.7456 36.4823 16.1001 37.3798 14.9114L37.38 14.9129ZM33.0142 14.3483C30.6104 14.3483 28.6617 12.3552 28.6617 9.89621C28.6617 7.43761 30.6104 5.44443 33.0142 5.44443C35.4178 5.44443 37.3663 7.43761 37.3663 9.89621C37.3663 12.3552 35.4178 14.3483 33.0142 14.3483Z" fill="#0D0E10"/>
<path fill-rule="evenodd" clip-rule="evenodd" d="M16.5704 10.3621C14.027 10.3621 11.965 12.4239 11.965 14.9676C11.965 17.5111 14.027 19.5729 16.5704 19.5729C19.1138 19.5729 21.1757 17.5111 21.1757 14.9676C21.1757 12.4239 19.1138 10.3621 16.5704 10.3621ZM4.60534 10.3625C2.0619 10.3625 0 12.4239 0 14.9676C0 17.5111 2.0619 19.5729 4.60534 19.5729C7.14888 19.5729 9.21089 17.5111 9.21089 14.9676C9.21089 12.4239 7.14888 10.3625 4.60534 10.3625ZM15.1931 4.60524C15.1931 7.14889 13.1313 9.21098 10.5879 9.21098C8.04433 9.21098 5.98254 7.14889 5.98254 4.60524C5.98254 2.06211 8.04433 0 10.5879 0C13.1313 0 15.1931 2.06211 15.1931 4.60524Z" fill="#F06A6A"/>
</g>
<defs>
<clipPath id="clip0_1_3491">
<rect width="100" height="19.6429" fill="white"/>
</clipPath>
</defs>
</svg>

<svg xmlns="http://www.w3.org/2000/svg" width="320" height="64" fill="none" viewBox="0 0 100 20"><g fill-rule="evenodd" clip-path="url(#a)" clip-rule="evenodd"><path fill="#0D0E10" d="M96.606 14.913c.06.683.606 1.553 1.554 1.553h.553a.392.392 0 0 0 .391-.391V3.892h-.002a.39.39 0 0 0-.389-.37h-1.716a.39.39 0 0 0-.388.37h-.003v.99c-1.052-1.297-2.71-1.835-4.372-1.835a6.846 6.846 0 0 0-6.843 6.85 6.846 6.846 0 0 0 6.843 6.848c1.662 0 3.475-.645 4.372-1.834v.002Zm-4.366-.565c-2.403 0-4.352-1.993-4.352-4.452 0-2.458 1.948-4.452 4.352-4.452 2.404 0 4.353 1.994 4.353 4.452 0 2.46-1.949 4.452-4.353 4.452ZM83.225 15.332V9.028c0-3.554-2.24-5.951-5.813-5.951-1.705 0-3.103.987-3.597 1.834-.106-.663-.458-1.36-1.548-1.36h-.556a.392.392 0 0 0-.39.392V16.127h.002a.39.39 0 0 0 .388.37h1.716a.399.399 0 0 0 .077-.009c.012-.002.022-.006.033-.01.013-.003.026-.006.039-.011l.043-.023.021-.012a.399.399 0 0 0 .048-.038l.008-.006a.386.386 0 0 0 .12-.26h.002V8.929a3.455 3.455 0 0 1 3.454-3.456 3.455 3.455 0 0 1 3.453 3.456l.001 6.016v-.002l.002.016v1.167h.002a.39.39 0 0 0 .388.37h1.717a.395.395 0 0 0 .077-.009c.01-.001.02-.005.03-.008l.041-.013c.014-.006.027-.014.04-.022l.025-.013a.435.435 0 0 0 .044-.035l.011-.01a.402.402 0 0 0 .044-.05l.004-.004a.388.388 0 0 0 .072-.206h.003v-.795ZM65.349 14.913c.06.683.606 1.553 1.553 1.553h.554c.215 0 .39-.176.39-.391V3.892h-.002a.39.39 0 0 0-.388-.37h-1.717a.391.391 0 0 0-.388.37h-.002v.99c-1.052-1.297-2.71-1.835-4.373-1.835a6.846 6.846 0 0 0-6.843 6.85 6.846 6.846 0 0 0 6.843 6.848c1.663 0 3.475-.645 4.373-1.834v.002Zm-4.366-.565c-2.404 0-4.353-1.993-4.353-4.452 0-2.458 1.95-4.452 4.353-4.452 2.404 0 4.352 1.994 4.352 4.452 0 2.46-1.948 4.452-4.352 4.452ZM43.976 13.168c1.146.794 2.397 1.18 3.599 1.18 1.145 0 2.328-.594 2.328-1.628 0-1.38-2.58-1.595-4.2-2.147-1.62-.55-3.017-1.69-3.017-3.536 0-2.824 2.514-3.99 4.86-3.99 1.487 0 3.022.49 4.016 1.194.343.26.134.558.134.558l-.95 1.357c-.106.152-.293.284-.56.119-.268-.165-1.208-.83-2.64-.83-1.431 0-2.294.66-2.294 1.481 0 .984 1.121 1.293 2.434 1.628 2.288.617 4.784 1.36 4.784 4.166 0 2.488-2.325 4.026-4.895 4.026-1.948 0-3.606-.556-4.997-1.577-.29-.29-.087-.56-.087-.56l.944-1.35c.192-.252.435-.164.54-.091ZM37.38 14.913c.06.683.607 1.553 1.553 1.553h.554c.215 0 .391-.176.391-.391V3.892h-.002a.39.39 0 0 0-.389-.37h-1.716a.391.391 0 0 0-.389.37h-.002v.99c-1.052-1.297-2.71-1.835-4.373-1.835a6.846 6.846 0 0 0-6.843 6.85 6.846 6.846 0 0 0 6.843 6.848c1.663 0 3.475-.645 4.373-1.834v.002Zm-4.366-.565c-2.404 0-4.352-1.993-4.352-4.452 0-2.458 1.948-4.452 4.352-4.452 2.404 0 4.352 1.994 4.352 4.452 0 2.46-1.948 4.452-4.352 4.452Z"/><path fill="#F06A6A" d="M16.57 10.362a4.605 4.605 0 1 0 0 9.21 4.605 4.605 0 0 0 0-9.21Zm-11.965 0a4.605 4.605 0 1 0 0 9.21 4.605 4.605 0 0 0 0-9.21Zm10.588-5.757a4.605 4.605 0 1 1-9.21 0 4.605 4.605 0 0 1 9.21 0Z"/></g><defs><clipPath id="a"><path fill="#fff" d="M0 0h100v19.643H0z"/></clipPath></defs></svg>
